X: 1201
T: COMING THRO' THE RYE
B: Oliver Ditson "The Boston Collection of Instrumental Music" 1910 p.120 #1
F: http://conquest.imslp.info/files/imglnks/usimg/8/8f/IMSLP175643-PMLP309456-bostoncollection00bost_bw.pdf
%: 2012 John Chambers <jc:trillian.mit.edu>
M: 2/4
L: 1/8
K: D
A |\
A>A A<f | e>d e>f | A>A B>c | d2 dB |\
A>A a<f | e>d e<f | A>A Bc | d3 H|]
f |\
a>f d<f | e>c Af | a>f ga | b2 g<b |\
a<f g<e | f<d e<a | A>A Bc | "^da Capo"d3 |]
%%begintext align
Grand right and left.
All balance and turn partners.
Grand chain.
All promenade.
%%endtext

%%sep 1 1 500
%%sep 1 1 500
